X: 553
T: Mr. Grumguffenhoff.
T: mai.gisdir grumguffenoff.
Z:Transcribed by J.B. Walsh (walsh@math.ubc.ca)
R:jig
N:"Spirited." "Collected from J. O'Neill."
B:O'Neill's 553
M:6/8
L:1/8
K:C
(c/d/)|edc edc g3z2(G/A/)|BAG BAG|(.ce2)z2 (c/d/)|
edc fed|g3 z2 f|efg gfe|(ed3) z g|
agf ed^c|d3 z2 d|gfe dcB|c3 z2 c/c/|
BAG cde|Hf3 z2 g/g/|efg gfe|d3 z2 (g/f/)|
.e.c.c c2 (e/d/)|cAA Ha2 f|.e.g.e .f.d.B|c3 z2||


